dev-svg/solid-g.svg

<?xml version="1.0" encoding="utf-8"?>
<!-- Generator: Adobe Illustrator 15.0.0, SVG Export Plug-In . SVG Version: 6.00 Build 0)  -->
<!DOCTYPE svg PUBLIC "-//W3C//DTD SVG 1.1//EN" "http://www.w3.org/Graphics/SVG/1.1/DTD/svg11.dtd">
<svg version="1.1" id="Layer_1" xmlns:ev="http://www.w3.org/2001/xml-events"
	 xmlns="http://www.w3.org/2000/svg" xmlns:xlink="http://www.w3.org/1999/xlink" x="0px" y="0px" width="1600px" height="1240px"
	 viewBox="0 0 1600 1240" enable-background="new 0 0 1600 1240" xml:space="preserve">
<path fill="#8A46AE" d="M1480,760c-173.333,0-346.667,0-520,0c0,93.333,0,186.667,0,280c-133.333,0-266.667,0-400,0
	c0-266.667,0-533.333,0-800c26.667,0,53.333,0,80,0c0-26.667,0-53.333,0-80c26.667,0,53.333,0,80,0v-40c133.333,0,266.667,0,400,0
	c0-40,0-80,0-120C960,0,800,0,640,0v40c-53.333,0-106.667,0-160,0v40c-26.667,0-53.333,0-80,0v40c-26.667,0-53.333,0-80,0v40
	c-26.667,0-53.333,0-80,0c0,26.667,0,53.333,0,80c-26.667,0-53.333,0-80,0c0,26.667,0,53.333,0,80c-26.667,0-53.333,0-80,0
	c0,53.333,0,106.667,0,160c-26.667,0-53.333,0-80,0c0,253.333,0,506.667,0,760c506.667,0,1013.333,0,1520,0c0-160,0-320,0-480H1480
	L1480,760z"/>
</svg>

<svg xmlns="http://www.w3.org/2000/svg" width="1600" height="1240"><path fill="#8A46AE" d="M1480 760H960v280H560V240h80v-80h80v-40h400V0H640v40H480v40h-80v40h-80v40h-80v80h-80v80H80v160H0v760h1520V760h-40z"/></svg>
